X: 13257
T: Fitzmaurice's
R: polka
M: 2/4
K: Gmajor
(3DEF|GG F/G/A/F/|Gg e/f/g/e/|dB G/A/B/G/|A/B/A/F/ D
(3D/E/F/|GG F/G/A/F/|Gg e/f/g/e/|dB G/A/B/G/|AFG:|
K:D
z|AF/G/ A/B/c/d/|dc c/^B/c|ee ^gg|a4|
AF/G/ A/B/c/d/|B^A/B/ c/d/e/f/|gg cc|df d:|
K:G
(3DEF|GG F/G/A/F/|Gg e/f/g/e/|dB G/A/B/G/|A/B/A/F/ D
(3D/E/F/|GG F/G/A/F/|Gg e/f/g/e/|dB G/A/B/G/|AFG||
K:C
|:G|e2- e/d/c/A/|G2 zG|A2- A/B/c/A/|G2 zG|
B2- B/G/A/B/|c2 zc|A2- A/A/B/c/|d2 zG|
e2- e/d/c/A/|G2 zG|^G/A/^A/B/ c/^c/d/^d/|e2 ze|
f2- f/d/B/G/|g2- g/e/c/G/|Az Bz|cec:|
K:G
(3DEF|GG F/G/A/F/|Gg e/f/g/e/|dB G/A/B/G/|A/B/A/F/ D
(3D/E/F/|GG F/G/A/F/|Gg e/f/g/e/|dB G/A/B/G/|AFG||

